X:39
T:Cleopatra Polka
M:2/4
L:1/8
C:© Paul Gitlitz 2006
R:Polka
B:Anna's Smile
K:Am
"Am"EA cA| "Em"BG "G"Bd|"Am"EA  cA|"Em"B4|!
"Am"EA cA|"Em"BG "G"Bd|1"Em"B/c/B/A/ GB|"Am"A4:|2"Am"e/d/c/B/ AG|A4|!
|"Am"ec ec|"G"dB dB|"Am"cA cA|"Em"B4|!
"Am"cA "G"dB|"C"cA "G"BG|"Em"E/F/G/A/ "G"BG|"Am"A4|!
"Am"ec ec|"G"dB dB|"Am"cA cA|"Em"B4|!
"Am"cA "G"dB|"C"ec "Dm"fd|"Am"e/d/c/B/ "G"AG|"Am"A4|]
